assets/images/clarity_edit-line.svg

<svg width="24" height="24" viewBox="0 0 24 24" fill="none" xmlns="http://www.w3.org/2000/svg">
<path d="M22.58 5.54667L18.6666 1.61333C18.408 1.35604 18.0581 1.21161 17.6933 1.21161C17.3285 1.21161 16.9786 1.35604 16.72 1.61333L2.84664 15.4667L1.57998 20.9333C1.53628 21.1332 1.53778 21.3402 1.58436 21.5394C1.63094 21.7386 1.72143 21.9249 1.84922 22.0846C1.97701 22.2443 2.13886 22.3735 2.32296 22.4627C2.50706 22.5518 2.70876 22.5988 2.91331 22.6C3.00862 22.6096 3.10466 22.6096 3.19998 22.6L8.72664 21.3333L22.58 7.49333C22.8373 7.23474 22.9817 6.88479 22.9817 6.52C22.9817 6.15521 22.8373 5.80526 22.58 5.54667V5.54667ZM8.05998 20.1333L2.87998 21.22L4.05998 16.14L14.44 5.8L18.44 9.8L8.05998 20.1333ZM19.3333 8.83333L15.3333 4.83333L17.6533 2.52667L21.5866 6.52667L19.3333 8.83333Z" fill="#3F3F40"/>
</svg>

<svg width="24" height="24" fill="none" xmlns="http://www.w3.org/2000/svg"><path d="M22.58 5.547l-3.913-3.934a1.38 1.38 0 00-1.947 0L2.847 15.467 1.58 20.933A1.373 1.373 0 002.913 22.6c.096.01.192.01.287 0l5.527-1.267L22.58 7.493a1.38 1.38 0 000-1.946zM8.06 20.133L2.88 21.22l1.18-5.08L14.44 5.8l4 4L8.06 20.133zm11.273-11.3l-4-4 2.32-2.306 3.934 4-2.254 2.306z" fill="#3F3F40"/></svg>
